src/icons/ios-circle-outline.svg

<svg xmlns="http://www.w3.org/2000/svg" width="512" height="512" viewBox="0 0 512 512">
    <path d="M256 89.5c-88.4 0-160 71.6-160 160s71.6 160 160 160 160-71.6 160-160-71.6-160-160-160zm0 306.7c-80.8 0-146.7-65.8-146.7-146.7 0-80.8 65.8-146.7 146.7-146.7 80.8 0 146.7 65.8 146.7 146.7 0 80.8-65.9 146.7-146.7 146.7z"/>
</svg>

<?xml version="1.0" encoding="UTF-8"?>
<svg width="512px" height="512px" viewBox="0 0 512 512" version="1.1" xmlns="http://www.w3.org/2000/svg" xmlns:xlink="http://www.w3.org/1999/xlink">
    <!-- Generator: Sketch 62 (91390) - https://sketch.com -->
    <title>ios-circle-outline</title>
    <desc>Created with Sketch.</desc>
    <g id="ios-circle-outline" stroke="none" stroke-width="1" fill="none" fill-rule="evenodd">
        <path d="M256,89.5 C167.6,89.5 96,161.1 96,249.5 C96,337.9 167.6,409.5 256,409.5 C344.4,409.5 416,337.9 416,249.5 C416,161.1 344.4,89.5 256,89.5 Z M256,396.2 C175.2,396.2 109.3,330.4 109.3,249.5 C109.3,168.7 175.1,102.8 256,102.8 C336.8,102.8 402.7,168.6 402.7,249.5 C402.7,330.3 336.8,396.2 256,396.2 Z" id="Shape" fill="#000000" fill-rule="nonzero"></path>
    </g>
</svg>
